X: 1
T: Up
Z: Thing
S: https://thesession.org/tunes/14974#setting27670
R: reel
M: 4/4
L: 1/8
K: Amaj
|: D2AD BcA(B | B)ABc ecBA | _E2A_E BcA(B | B)A ef ecBA |
D2AD BcA(B | B)ABc e2 BA | f3 e cBA(B |1 B)AFA EA_EA :|2 B)AFA EAAB |
|: G3 e ed (c2 | c2) ec ecBA | F3 f fe (A2 | A2) BA BcBA |
G3 e ed (c2 | c6) BA | FAAF ABFA | AFAB FAAF :|
|: ceae cefe | fecB BA (3Bce | aece fece | fecA B3 A |
ceae cefe | fec(B B)Ace | f3 f ecBA | BcFE A4 :|
